brandFactory_export/1.Light/Flecha atrás_1Light.svg

<?xml version="1.0" encoding="UTF-8"?>
<svg width="24px" height="24px" viewBox="0 0 24 24" version="1.1" xmlns="http://www.w3.org/2000/svg" xmlns:xlink="http://www.w3.org/1999/xlink">
    <title>1.Light/Flecha atrás_1Light</title>
    <g id="Symbols" stroke="none" stroke-width="1" fill="none" fill-rule="evenodd">
        <g id="1.Light/Flecha-atrás_1Light" fill="#5CB615" fill-rule="nonzero">
            <path d="M22.9277311,11.2840336 L2.24201681,11.2840336 L11.7613445,1.26722689 C12.0605042,1.03193277 12.1109244,0.594957983 11.8756303,0.295798319 C11.7714286,0.164705882 11.6201681,0.0739495798 11.4554622,0.043697479 C11.1865546,-0.00672268908 10.9142857,0.104201681 10.7563025,0.322689076 L0.124369748,11.5058824 C0.0907563025,11.5294118 0.0672268908,11.5630252 0.0537815126,11.6033613 C0.0504201681,11.6403361 0.0504201681,11.6773109 0.0537815126,11.7142857 C-0.0168067227,11.8823529 -0.0168067227,12.0739496 0.0537815126,12.2420168 C0.0504201681,12.2789916 0.0504201681,12.3159664 0.0537815126,12.3529412 C0.0705882353,12.3932773 0.0941176471,12.4302521 0.124369748,12.4638655 L10.5613445,23.4352941 C10.692437,23.5798319 10.8806723,23.6638655 11.0789916,23.6571429 C11.4521008,23.6672269 11.7647059,23.3714286 11.7747899,22.9983193 C11.7815126,22.8067227 11.7042017,22.6252101 11.5663866,22.4907563 L2.24201681,12.6689076 L22.9277311,12.6689076 C23.3109244,12.6689076 23.6235294,12.3596639 23.6235294,11.9764706 C23.6235294,11.5966387 23.3109244,11.2840336 22.9277311,11.2840336 C22.9277311,11.287395 22.9277311,11.287395 22.9277311,11.2840336 Z" id="Path"></path>
        </g>
    </g>
</svg>

<svg width="24" height="24" viewBox="0 0 24 24" xmlns="http://www.w3.org/2000/svg"><path d="M22.928 11.284H2.242l9.52-10.017a.693.693 0 00-.307-1.223.704.704 0 00-.699.279L.124 11.506a.19.19 0 00-.07.097.611.611 0 000 .111.684.684 0 000 .528.611.611 0 000 .11c.017.041.04.078.07.112l10.437 10.971a.67.67 0 00.518.222.679.679 0 00.487-1.166l-9.324-9.822h20.686c.383 0 .696-.31.696-.693a.696.696 0 00-.696-.692c0 .003 0 .003 0 0z" fill="#5CB615" fill-rule="nonzero"/></svg>
